img/svg/editors/folder.svg

<svg width="24" height="24" viewBox="0 0 24 24" fill="none" xmlns="http://www.w3.org/2000/svg">
<path d="M3.08545 5.58203C2.95275 5.59585 2.82184 5.62322 2.69482 5.66406L2.50732 5.73535C2.32349 5.81639 2.15397 5.92569 2.00439 6.05859L1.86182 6.19922C1.72639 6.34742 1.61497 6.51547 1.53174 6.69727L1.45752 6.88379C1.39331 7.07429 1.35967 7.27344 1.35693 7.47363L1.36475 7.67383L2.31982 18.1738C2.35775 18.593 2.53143 18.9866 2.81201 19.2959L2.93896 19.4229C3.24954 19.7069 3.6433 19.8806 4.05908 19.9199L4.23877 19.9287H19.7612C20.1822 19.9283 20.5902 19.7901 20.9233 19.5381L21.061 19.4229C21.3717 19.1388 21.5796 18.7623 21.6558 18.3516L21.6802 18.1738L22.6362 7.67383C22.6543 7.47381 22.641 7.27231 22.5972 7.07715L22.5425 6.88379C22.4783 6.69337 22.3851 6.51446 22.2661 6.35352L22.1392 6.19922C22.0036 6.0509 21.8461 5.92448 21.6724 5.8252L21.4937 5.73535C21.2485 5.62731 20.9832 5.57129 20.7153 5.57129H3.28564L3.08545 5.58203ZM3.56201 2.58105C3.1258 2.62376 2.71448 2.81349 2.39893 3.12305C2.03847 3.47672 1.83149 3.95801 1.82178 4.46289V4.49023L1.83057 4.69824L1.85596 5.2832L2.40576 5.08301C2.68009 4.98302 2.97609 4.92871 3.28564 4.92871H12.4136L11.353 3.86816H11.355L10.6235 3.13672C10.4443 2.95739 10.2309 2.81474 9.99658 2.71777C9.76251 2.62095 9.51161 2.57114 9.2583 2.57129H3.75049L3.56201 2.58105ZM1.23877 5.78516L1.1792 4.5C1.1792 3.90318 1.38622 3.32772 1.76123 2.87012L1.93213 2.68164C2.35395 2.25988 2.90719 1.99994 3.49561 1.94141L3.75049 1.92871H9.2583C9.85475 1.92888 10.4298 2.13604 10.8872 2.51074L11.0757 2.68164H11.0767L12.3179 3.92383C12.9204 4.52659 13.7246 4.88251 14.5718 4.9248L14.7417 4.92871H20.7153C20.9834 4.92869 21.2493 4.96998 21.5034 5.05176L21.7534 5.14746C21.9985 5.25559 22.2249 5.40084 22.4243 5.57812L22.6138 5.76562C22.7944 5.96343 22.9433 6.18802 23.0542 6.43066L23.1528 6.67969C23.2383 6.93366 23.2831 7.19896 23.2866 7.46582L23.2769 7.73242L22.3208 18.2324C22.2627 18.8713 21.9682 19.4657 21.4946 19.8984C21.0211 20.3311 20.4027 20.571 19.7612 20.5713H4.23975C3.6784 20.5711 3.13435 20.3876 2.68994 20.0518L2.50635 19.8984C2.09187 19.5198 1.81416 19.0175 1.7124 18.4697L1.6792 18.2324L0.724121 7.73242C0.669385 7.13743 0.825027 6.54213 1.16357 6.0498L1.23877 5.93945V5.78516Z" fill="#FBFBFB" stroke="#FBFBFB" stroke-width="0.857143"/>
</svg>

<svg width="24" height="24" fill="none" xmlns="http://www.w3.org/2000/svg"><path d="M3.085 5.582a1.929 1.929 0 00-.39.082l-.188.071c-.184.081-.353.19-.503.324l-.142.14a1.929 1.929 0 00-.33.498l-.074.187a1.93 1.93 0 00-.101.59l.008.2.955 10.5c.038.419.211.813.492 1.122l.127.127c.31.284.704.458 1.12.497l.18.009H19.76a1.93 1.93 0 001.162-.39l.138-.116c.31-.284.519-.66.595-1.071l.024-.178.956-10.5a1.93 1.93 0 00-.039-.597l-.055-.193a1.927 1.927 0 00-.276-.53l-.127-.155a1.932 1.932 0 00-.467-.374l-.178-.09a1.931 1.931 0 00-.779-.164H3.285l-.2.011zm.477-3.001a1.93 1.93 0 00-1.74 1.882v.027l.009.208.025.585.55-.2c.274-.1.57-.154.88-.154h9.128l-1.061-1.06h.002l-.732-.732a1.93 1.93 0 00-1.365-.566H3.75l-.188.01zM1.239 5.785L1.179 4.5c0-.597.207-1.172.582-1.63l.171-.188a2.571 2.571 0 011.564-.74l.254-.013h5.508c.597 0 1.172.207 1.63.582l.188.17h0l1.242 1.243a3.43 3.43 0 002.254 1l.17.005h5.973c.268 0 .534.041.788.123l.25.095c.245.109.472.254.671.431l.19.188c.18.197.33.422.44.665l.099.249c.085.254.13.519.134.786l-.01.266-.956 10.5a2.572 2.572 0 01-2.56 2.34H4.24a2.573 2.573 0 01-1.55-.52l-.184-.154a2.571 2.571 0 01-.794-1.428l-.033-.238-.955-10.5a2.55 2.55 0 01.44-1.682l.075-.11v-.155z" fill="#FBFBFB" stroke="#FBFBFB" stroke-width=".857"/></svg>
